X:25
T:Enchanted Wood. THO5.025, The
M:6/8
L:1/8
B:Thompson's Complete Collection of 200 Favourite Dances Vol.5
F:https://www.libraryofdance.org/manuals/1780c-Thompson-Compleat-5.pdf
Z:vmp. Peter Dunk 2024
Q:3/8=100
C:"1787"
K:A
a|ecA AcA|B2B B2B|cde fga|ecA GFE|
ecA AcA|B2B B2B|cde dBG|A3-A3:|
|:B|BcB eBG|E2E E2E|AAA BBB|cea a2A|
BcB eBG|E2E E2B|cde dBG|A3 [A A,]2:|
W:
W:Right hands across, Left hands back again ./.
W:Lead down the middle, up again and cast off ./:
W:Allemand with your partner :/.
W:right amd left at the top :/:

